X:9
T:Mrs Henry Lumsden of Tillywhilly
R:strathspey
C:Williilm Marshall
O:19th century Scotland
D:Howie, Dave  & Mac
Z:Paul Stewart Cranford (P.S.C.), <http://www.cranfordpub.com>
L:1/8
M:C
Q:288
K:Bb
g|f>ed>c B2 F>B|G>BF>B d>cc<g|fc B2 F<d|c/d/c/B/ A/G/F/E/ D<B,B,:|
||E|DB, (3FED E<CC>E|D>B,D<F E<GF>A|G>BA>c d<BBF|
DB, (3FED E<CC>g|f>ed>c B2 F<d|c/d/c/B/ A/G/F/E/ D<B,B,|]
